X: 20481
Q: "Lively"
M: 6/8
L: 1/8
K: G
(d^c).d (ef).g | (fa).f {f}e2g | (fe).d (Ad).^c | d3- d2 :: d |\
(af).d (af).d | c2c B2c |
(dg).d (dg).d | c2c B2B |\
e2f g2f | e2f B2e | (e^d).e B2A | G2F E2F |\


